rospo-icon-theme-classic-common/32x32/places/folder-yellow-steam.svg

<svg height="32" width="32" xmlns="http://www.w3.org/2000/svg"><rect height="16" opacity=".2" rx="1.25" width="25" x="3" y="12"/><path d="m3 21.75c0 .692.5575 1.25 1.25 1.25h22.5c.692 0 1.25-.558 1.25-1.25v-13.5c0-.6925-.558-1.25-1.25-1.25h-12.75v-.75c0-.6925-.557-1.25-1.25-1.25h-8.5c-.6925 0-1.25.5575-1.25 1.25" fill="#b58f1b"/><rect height="16" opacity=".2" rx="1.25" width="25" x="3" y="10"/><rect fill="#e4e4e4" height="10" rx="1.25" width="21" x="5" y="9"/><rect fill="#e2b322" height="16" rx="1.25" width="25" x="3" y="11"/><path d="m4.25 5c-.6925 0-1.25.5575-1.25 1.25v1c0-.6925.5575-1.25 1.25-1.25h8.5c.693 0 1.25.5575 1.25 1.25v.75h12.75c.692 0 1.25.5575 1.25 1.25v-1c0-.6925-.558-1.25-1.25-1.25h-12.75v-.75c0-.6925-.557-1.25-1.25-1.25z" fill="#fff" opacity=".1"/><path d="m7 20.056 3.008 1.737c-.005.069-.008.138-.008.207 0 1.657 1.343 3 3 3s3-1.343 3-3c-.002-.137-.013-.273-.033-.408l3.638-2.598c1.89-.057 3.393-1.604 3.395-3.494 0-1.933-1.567-3.5-3.5-3.5s-3.501 1.567-3.5 3.514l-2.322 3.568c-.222-.053-.45-.081-.678-.082-.453.001-.9.105-1.307.303l-4.693-2.709m12.5-3.594c1.381 0 2.5 1.119 2.5 2.5s-1.119 2.5-2.5 2.5-2.5-1.119-2.5-2.5 1.119-2.5 2.5-2.5zm0 1c-.828 0-1.5.672-1.5 1.5s.672 1.5 1.5 1.5 1.5-.672 1.5-1.5-.672-1.5-1.5-1.5zm-6.5 6c1.105 0 2 .895 2 2s-.895 2-2 2c-.954-.001-1.774-.676-1.959-1.611l.705.408c.72.415 1.633.171 2.049-.549.415-.72.171-1.633-.549-2.049l-.338-.195c.031-.002.061-.003.092-.004z" fill="#4f3e0c"/></svg>

<svg xmlns="http://www.w3.org/2000/svg" width="32" height="32" version="1">
 <rect style="opacity:0.2" width="25" height="16" x="3" y="12" rx="1.25" ry="1.25"/>
 <path style="fill:#b58f1b" d="M 3,21.75 C 3,22.442 3.5575,23 4.25,23 H 26.75 C 27.442,23 28,22.442 28,21.75 V 8.25 C 28,7.5575 27.442,7 26.75,7 H 14 V 6.25 C 14,5.5575 13.443,5 12.75,5 H 4.25 C 3.5575,5 3,5.5575 3,6.25"/>
 <rect style="opacity:0.2" width="25" height="16" x="3" y="10" rx="1.25" ry="1.25"/>
 <rect style="fill:#dcdcdc" width="21" height="10" x="5" y="9" rx="1.25" ry="1.25"/>
 <rect style="fill:#e2b322" width="25" height="16" x="3" y="11" rx="1.25" ry="1.25"/>
 <path style="opacity:0.1;fill:#ffffff" d="M 4.25 5 C 3.5575 5 3 5.5575 3 6.25 L 3 7.25 C 3 6.5575 3.5575 6 4.25 6 L 12.75 6 C 13.443 6 14 6.5575 14 7.25 L 14 8 L 26.75 8 C 27.442 8 28 8.5575 28 9.25 L 28 8.25 C 28 7.5575 27.442 7 26.75 7 L 14 7 L 14 6.25 C 14 5.5575 13.443 5 12.75 5 L 4.25 5 z"/>
 <path style="fill:#4f3e0c" d="M 7,20.056 10.008,21.793 C 10.003,21.862 10,21.931 10,22 10,23.657 11.343,25 13,25 14.657,25 16,23.657 16,22 15.998,21.863 15.987,21.727 15.967,21.592 L 19.605,18.994 C 21.495,18.937 22.998,17.39 23,15.5 23,13.567 21.433,12 19.5,12 17.567,12 15.999,13.567 16,15.514 L 13.678,19.082 C 13.456,19.029 13.228,19.001 13,19 12.547,19.001 12.1,19.105 11.693,19.303 L 7,16.594 M 19.5,13 C 20.881,13 22,14.119 22,15.5 22,16.881 20.881,18 19.5,18 18.119,18 17,16.881 17,15.5 17,14.119 18.119,13 19.5,13 Z M 19.5,14 C 18.672,14 18,14.672 18,15.5 18,16.328 18.672,17 19.5,17 20.328,17 21,16.328 21,15.5 21,14.672 20.328,14 19.5,14 Z M 13,20 C 14.105,20 15,20.895 15,22 15,23.105 14.105,24 13,24 12.046,23.999 11.226,23.324 11.041,22.389 L 11.746,22.797 C 12.466,23.212 13.379,22.968 13.795,22.248 14.21,21.528 13.966,20.615 13.246,20.199 L 12.908,20.004 C 12.939,20.002 12.969,20.001 13,20 Z"/>
</svg>
